X: 16247
T: Greig's Pipes
R: reel
M: 4/4
K: Gmajor
DGBG AGAG|DGBG AGEG|DGBG AGAG|1 dBAB GEDz:|2 dBAB GEDe||
d2 Bd egge|d2 BG AGE>e|d2 Bd eggb|1 agbg ageg:|2 agbg aged||
B2 BA BAGB|A2 BG AGEG|B2 BA BA G2|(3ABc BG AGEG|
B2 BA BAGB|A2 BG AGEG|(3B^cd ed BdeB|A2 BGAG E>D||
G2 GF GBdB|G2 GB AGEF|G2 GF GBdB|1 A2 BG AGED:|2 A2 BG AGEG||
B2 Gd Bdgd|B2 GB AGEG|B2 GB GBGB|A2 BG AGEG|
B2 Gd Bdgd|B2 GB AGEG|(3B^cd gB gBgB|A2 BG AGEG||

